X:1
T:Tarantella Napoletana
N:Transposed
C:Traditional Italian
R:Jig
Q:3/8=180
M:6/8
L:1/8
K:Dm
P:A
|:"Dm"d2dA2A|d2dA2A|"Gm"B2BBcB|"Dm"A2zA2A|
"A7"G2GGAG|"Dm"F2FFGF| "A7"E2E EFE |1 "Dm"D3z3 :|2 "Dm"D2z ||
P:B
|:zDE|"Dm"FEF "A7"GFE|"Dm"FEF "Gm"GFE|"Dm"FED "A7"^CDE|"Dm"D2z zDE|
"Dm"FEF "A7"GFG|"Dm"AGA "Gm"BAG|"Dm"FED "A7"^CDE|"Dm"D2z:|
P:C
|:"C7"CDE|"F"FEF AGA|c2c cdc|"C7"B2B BcB|"F"A2z "C7"CDE|
"F"FEF AGA|c2c c=Bc|"C7"edc BAG|"F"F2z:|
P:D
|:A2B|"F"c=Bc d2c|"C7"B2z G2A|BAB c2B|"F"A2z A2A|
"Gm"BAG G2G|"Dm"AGF F2G|"A7"A2G F2E|"Dm"D2z:|

